**kern	**kern
*staff1	*staff2
*clefG2	*clefG2
*k[b-]	*k[b-]
*M2/4	*M2/4
*F:	*F:
8ccL	4r
8ccJ	.
=291	=291
(8ccL	4r
16eeJk)	.
16r	.
4r	(8B-L
.	16CJk)
.	16r
=292	=292
(8ccL	4r
16ffJk)	.
16r	.
4r	(8AL
.	16CJk)
.	16r
=293	=293
(8ccL	4r
16bb-Jk)	.
16r	.
4r	(8EL
.	16CJk)
.	16r
=294	=294
(8ccL	4r
16aaJk)	.
16r	.
4r	(8FL
.	16CJk)
.	16r
=295	=295
(16ccLL	8r
16eeJJ)	.
8r	(16B-LL
.	16CJJ)
(16dd#LL	8r
16eeJJ)	.
8r	(16B-LL
.	16C#JJ)
=296	=296
(16eeLL	8r
16ffJJ)	.
8r	(16ALL
.	16DJJ)
(16ffLL 16gg	8r
16fffJJ)	.
8r	(16BLL
.	16DJJ)
=297	=297
(16ffLL 16aa	8r
16fffJJ)	.
8r	(16cLL
.	16CJJ)
(16ggLL 16bb-	8r
16eeeJJ)	.
8r	(16ccLL
.	16cJJ)
=298	=298
(16ffLL 16aa	8r
16fffJJ)	.
8r	(16fLL
.	16FJJ)
(16b-LL	8r
16eeJJ)	.
8r	(16cLL
.	16CJJ)
=299	=299
(16aLL	8r
16ffJJ)	.
8r	(16FLL
.	16FFJJ)
4r	4r
==300||	==300||
*-	*-
